X:826
T:Big John's Reel
R:reel
S:Kevin Ryan
D:Cathal McConnell: On Lough Erne's Shore
D:Altan: Island Angel
D:Eitre: The Coming of Spring
Z:id:hn-reel-826
M:C|
L:1/8
K:D
DFAd fdAF | G2GF GABc | d2fd ecAF | E2ED EGFE |
DFAd fdAF | G2GF GABc | d2fd edce |1 d2dc dBAF :|2 d2dc d2ef ||
|: gebe ge~e2 | gebe geeg | fdad fdde | fdad fdef |
gebe ge~e2 | gebe geeg | ~f3d edce |1 d2dc d2ef :|2 d2dc dBAF ||
